X:1
T:Inky Bob's Rant
C:Chris Ormston
M:C
R:
K:G
(3DEF|GABdB2AB|cBAGE2DE|GABdB2AB|c2E2E2 (3DEF|GABdB2AB|cBAGE2DE|Ggfg
cAdc|B2G2G2:||
(3def|gBBgB2AB|cEEcE2(3def|gBBgB2AB|c2E2E2(3def|gBBgB2AB|cEEcE2DE|Ggfg
cAdc|B2G2G2:||
